public/partners/makita.svg

<?xml version="1.0" encoding="UTF-8" standalone="no"?>
<!-- Created with Inkscape (http://www.inkscape.org/) -->

<svg
   version="1.0"
   width="779.52802"
   height="251.422"
   id="svg2351"
   sodipodi:docname="makita.svg"
   inkscape:version="1.1 (c4e8f9ed74, 2021-05-24)"
   xmlns:inkscape="http://www.inkscape.org/namespaces/inkscape"
   xmlns:sodipodi="http://sodipodi.sourceforge.net/DTD/sodipodi-0.dtd"
   xmlns="http://www.w3.org/2000/svg"
   xmlns:svg="http://www.w3.org/2000/svg">
  <sodipodi:namedview
     id="namedview11"
     pagecolor="#ffffff"
     bordercolor="#666666"
     borderopacity="1.0"
     inkscape:pageshadow="2"
     inkscape:pageopacity="0.0"
     inkscape:pagecheckerboard="0"
     showgrid="false"
     inkscape:snap-bbox="true"
     inkscape:bbox-paths="true"
     inkscape:bbox-nodes="true"
     inkscape:snap-bbox-edge-midpoints="true"
     inkscape:snap-bbox-midpoints="true"
     inkscape:snap-page="true"
     inkscape:zoom="1.4982319"
     inkscape:cx="417.49212"
     inkscape:cy="143.83621"
     inkscape:window-width="1440"
     inkscape:window-height="839"
     inkscape:window-x="0"
     inkscape:window-y="32"
     inkscape:window-maximized="1"
     inkscape:current-layer="layer1" />
  <defs
     id="defs2353" />
  <g
     transform="translate(2.183609,-441.36842)"
     id="layer1">
    <g
       transform="translate(17.560608,17.79304)"
       id="g2364">
      <path
         d="M -19.744217,674.74616 H 759.54944 V 423.57538 H -19.744217 Z"
         style="fill:#ec1b24;fill-rule:nonzero;stroke:none"
         id="path43" />
      <path
         d="m 543.77626,674.97242 c -3.6638,-1.5588 -13.87562,-6.78838 -15.20082,-17.17214 l -18.94251,17.19731 -44.12125,-0.0252 c -4.36532,-1.20681 -12.31652,-5.12901 -14.811,-17.72526 l -18.24096,17.70013 -38.50865,0.0503 -16.44803,-53.20095 -20.34566,53.15065 H 320.2857 l 6.93777,-17.85096 c -14.81099,12.29452 -19.4102,16.56872 -20.7354,17.90126 l -31.33701,-0.0252 c -11.77089,-5.4307 -12.62836,-18.00182 -12.62836,-18.00182 -15.27872,12.47055 -20.03385,16.64414 -21.437,18.00182 l -27.36141,-0.0251 c -10.05593,-4.70159 -13.25196,-17.42357 -13.25196,-17.42357 -15.27876,11.23857 -24.16534,17.42357 -24.16534,17.42357 h -49.65596 l 29.46615,-75.82893 H 129.8471 l -28.45274,75.82893 H 64.756583 l 33.59759,-93.55419 h -24.00942 l -35.78033,93.55419 H 1.9266429 L 44.021143,563.66784 h -63.92128 v -32.10662 h 112.01809 l -6.31412,18.83151 h 60.647227 l -6.85983,19.3595 h 61.19286 l -28.06296,76.96034 h 28.60863 l 22.29451,-55.36314 c 0,0 8.57481,-21.5972 28.60867,-21.5972 h 77.25119 l -27.43939,77.51347 h 28.6087 l 44.04327,-115.70448 h 34.84493 l -26.89376,76.40719 40.06775,-38.21618 h 41.78265 l -50.35747,49.27875 7.4055,28.78788 30.9473,-0.2766 30.86925,-78.34315 h 34.84488 l -27.98506,78.06659 h 40.06775 l 19.95587,-52.5975 h -23.46378 l 9.19846,-25.46909 h 22.29447 l 15.43464,-37.63789 h 36.0142 l -13.71969,36.53164 h 21.20317 l -8.57482,26.02218 h -22.91811 l -18.86458,52.59753 h 40.06775 l 18.86457,-50.385 c 0,0 8.02911,-25.99705 31.49286,-26.57534 h 75.4583 l -27.9851,76.96034 h 54.8788 v 28.23472 h -73.1976 c 0,0 -17.1497,-2.21249 -20.0339,-17.70013 l -17.7733,17.70013 h -25.10075 c 0,0 -16.05825,-2.21249 -18.31887,-17.70013 l -18.3189,17.72526 z m 122.93148,-27.15356 19.4102,-48.7005 h -24.633 l -19.41024,48.7005 z m -402.62598,0 19.41021,-48.7005 h -24.55509 l -19.48818,48.7005 h 24.63306"
         style="fill:#ffffff;fill-rule:nonzero;stroke:none"
         id="path45" />
      <path
         d="m 486.16914,560.14793 10.28976,-28.78784 h 34.9229 l -10.2898,28.78784 h -34.92286"
         style="fill:#ffffff;fill-rule:nonzero;stroke:none"
         id="path47" />
      <path
         d="m 718.93614,515.89763 h -5.6126 v -5.30501 h 6.0803 c 1.1693,0 3.196,0.20113 3.196,2.61478 0,2.3131 -1.8708,2.69023 -3.6637,2.69023 z m 6.0023,6.58725 -0.1559,-2.81592 c -0.0779,-2.16223 -1.0913,-2.56452 -2.1047,-2.94165 1.0913,-0.57826 2.4165,-1.43311 2.4165,-3.7462 0,-3.29361 -2.9622,-4.19873 -5.9244,-4.19873 h -8.263 v 15.6133 h 2.4166 v -6.68782 h 5.8464 c 2.9622,0 3.274,1.50854 3.274,2.79079 0,0.57825 0.078,2.94165 0.3898,3.89703 h 3.0401 v -0.352 c -0.7795,-0.37712 -0.9354,-0.67882 -0.9354,-1.5588"
         style="fill:#ffffff;fill-rule:nonzero;stroke:none"
         id="path49" />
      <path
         d="m 717.84474,529.70069 c -3.5079,0 -6.7819,-1.35768 -9.2764,-3.84677 -2.4944,-2.48906 -3.8976,-5.7827 -3.8976,-9.30261 0,-3.5199 1.4032,-6.81355 3.8976,-9.3026 2.4945,-2.48909 5.7685,-3.84677 9.2764,-3.84677 3.5079,0 6.8599,1.35768 9.2764,3.84677 2.4945,2.48905 3.8976,5.7827 3.8976,9.3026 0,7.26611 -5.9244,13.14938 -13.174,13.14938 z m 10.3677,-23.4577 c -2.8063,-2.76562 -6.47,-4.27416 -10.3677,-4.27416 -8.0291,0 -14.5771,6.53699 -14.5771,14.58248 0,3.89703 1.481,7.56781 4.2874,10.33346 2.7283,2.74048 6.3921,4.27416 10.2897,4.27416 3.8977,0 7.5614,-1.53368 10.3677,-4.27416 2.7284,-2.76565 4.2095,-6.43643 4.2095,-10.33346 0,-3.89703 -1.4811,-7.5678 -4.2095,-10.30832"
         style="fill:#ffffff;fill-rule:nonzero;stroke:none"
         id="path51" />
    </g>
  </g>
</svg>

<?xml version="1.0" encoding="UTF-8" standalone="no"?>
<!-- Created with Inkscape (http://www.inkscape.org/) -->
<svg
   xmlns:svg="http://www.w3.org/2000/svg"
   xmlns="http://www.w3.org/2000/svg"
   version="1.0"
   width="814.96063"
   height="287.00787"
   id="svg2351">
  <defs
     id="defs2353" />
  <g
     transform="translate(19.900137,-423.57538)"
     id="layer1">
    <g
       transform="translate(17.716528,17.792832)"
       id="g2364">
      <path
         d="M -19.744217,674.74616 L 759.54944,674.74616 L 759.54944,423.57538 L -19.744217,423.57538 L -19.744217,674.74616 z "
         style="fill:#ec1b24;fill-rule:nonzero;stroke:none"
         id="path43" />
      <path
         d="M 543.77626,674.97242 C 540.11246,673.41362 529.90064,668.18404 528.57544,657.80028 L 509.63293,674.99759 L 465.51168,674.97242 C 461.14636,673.76561 453.19516,669.84341 450.70068,657.24716 L 432.45972,674.94729 L 393.95107,674.99759 L 377.50304,621.79664 L 357.15738,674.94729 L 320.2857,674.94729 L 327.22347,657.09633 C 312.41248,669.39085 307.81327,673.66505 306.48807,674.99759 L 275.15106,674.97242 C 263.38017,669.54172 262.5227,656.9706 262.5227,656.9706 C 247.24398,669.44115 242.48885,673.61474 241.0857,674.97242 L 213.72429,674.94729 C 203.66836,670.2457 200.47233,657.52372 200.47233,657.52372 C 185.19357,668.76229 176.30699,674.94729 176.30699,674.94729 L 126.65103,674.94729 L 156.11718,599.11836 L 129.8471,599.11836 L 101.39436,674.94729 L 64.756583,674.94729 L 98.354173,581.3931 L 74.344753,581.3931 L 38.564423,674.94729 L 1.9266429,674.94729 L 44.021143,563.66784 L -19.900137,563.66784 L -19.900137,531.56122 L 92.117953,531.56122 L 85.803833,550.39273 L 146.45106,550.39273 L 139.59123,569.75223 L 200.78409,569.75223 L 172.72113,646.71257 L 201.32976,646.71257 L 223.62427,591.34943 C 223.62427,591.34943 232.19908,569.75223 252.23294,569.75223 L 329.48413,569.75223 L 302.04474,647.2657 L 330.65344,647.2657 L 374.69671,531.56122 L 409.54164,531.56122 L 382.64788,607.96841 L 422.71563,569.75223 L 464.49828,569.75223 L 414.14081,619.03098 L 421.54631,647.81886 L 452.49361,647.54226 L 483.36286,569.19911 L 518.20774,569.19911 L 490.22268,647.2657 L 530.29043,647.2657 L 550.2463,594.6682 L 526.78252,594.6682 L 535.98098,569.19911 L 558.27545,569.19911 L 573.71009,531.56122 L 609.72429,531.56122 L 596.0046,568.09286 L 617.20777,568.09286 L 608.63295,594.11504 L 585.71484,594.11504 L 566.85026,646.71257 L 606.91801,646.71257 L 625.78258,596.32757 C 625.78258,596.32757 633.81169,570.33052 657.27544,569.75223 L 732.73374,569.75223 L 704.74864,646.71257 L 759.62744,646.71257 L 759.62744,674.94729 L 686.42984,674.94729 C 686.42984,674.94729 669.28014,672.7348 666.39594,657.24716 L 648.62264,674.94729 L 623.52189,674.94729 C 623.52189,674.94729 607.46364,672.7348 605.20302,657.24716 L 586.88412,674.97242 L 543.77626,674.97242 z M 666.70774,647.81886 L 686.11794,599.11836 L 661.48494,599.11836 L 642.0747,647.81886 L 666.70774,647.81886 z M 264.08176,647.81886 L 283.49197,599.11836 L 258.93688,599.11836 L 239.4487,647.81886 L 264.08176,647.81886"
         style="fill:#ffffff;fill-rule:nonzero;stroke:none"
         id="path45" />
      <path
         d="M 486.16914,560.14793 L 496.4589,531.36009 L 531.3818,531.36009 L 521.092,560.14793 L 486.16914,560.14793"
         style="fill:#ffffff;fill-rule:nonzero;stroke:none"
         id="path47" />
      <path
         d="M 718.93614,515.89763 L 713.32354,515.89763 L 713.32354,510.59262 L 719.40384,510.59262 C 720.57314,510.59262 722.59984,510.79375 722.59984,513.2074 C 722.59984,515.5205 720.72904,515.89763 718.93614,515.89763 z M 724.93844,522.48488 L 724.78254,519.66896 C 724.70464,517.50673 723.69124,517.10444 722.67784,516.72731 C 723.76914,516.14905 725.09434,515.2942 725.09434,512.98111 C 725.09434,509.6875 722.13214,508.78238 719.16994,508.78238 L 710.90694,508.78238 L 710.90694,524.39568 L 713.32354,524.39568 L 713.32354,517.70786 L 719.16994,517.70786 C 722.13214,517.70786 722.44394,519.2164 722.44394,520.49865 C 722.44394,521.0769 722.52194,523.4403 722.83374,524.39568 L 725.87384,524.39568 L 725.87384,524.04368 C 725.09434,523.66656 724.93844,523.36486 724.93844,522.48488"
         style="fill:#ffffff;fill-rule:nonzero;stroke:none"
         id="path49" />
      <path
         d="M 717.84474,529.70069 C 714.33684,529.70069 711.06284,528.34301 708.56834,525.85392 C 706.07394,523.36486 704.67074,520.07122 704.67074,516.55131 C 704.67074,513.03141 706.07394,509.73776 708.56834,507.24871 C 711.06284,504.75962 714.33684,503.40194 717.84474,503.40194 C 721.35264,503.40194 724.70464,504.75962 727.12114,507.24871 C 729.61564,509.73776 731.01874,513.03141 731.01874,516.55131 C 731.01874,523.81742 725.09434,529.70069 717.84474,529.70069 z M 728.21244,506.24299 C 725.40614,503.47737 721.74244,501.96883 717.84474,501.96883 C 709.81564,501.96883 703.26764,508.50582 703.26764,516.55131 C 703.26764,520.44834 704.74864,524.11912 707.55504,526.88477 C 710.28334,529.62525 713.94714,531.15893 717.84474,531.15893 C 721.74244,531.15893 725.40614,529.62525 728.21244,526.88477 C 730.94084,524.11912 732.42194,520.44834 732.42194,516.55131 C 732.42194,512.65428 730.94084,508.98351 728.21244,506.24299"
         style="fill:#ffffff;fill-rule:nonzero;stroke:none"
         id="path51" />
    </g>
  </g>
</svg>
